!!!COM: Schiørring, Niels
!!!CDT: 1743-1798
!!!OPR@@DA: Choral-Bog
!!!ONM: 80
!!!OTL@@DA: D! Gud ſkee Lov til evig Tiid
**kern	**fb	**kern	**kern	**kern	**kern	**kern	**kern	**kern
*part6	*part6	*part6	*part5	*part5	*part4	*part3	*part2	*part1
*staff8	*	*staff7	*staff6	*staff5	*staff4	*staff3	*staff2	*staff1
*clefF4	*	*clefC1	*clefF4	*clefC1	*clefF4	*clefC4	*clefC3	*clefC1
*mclefF4	*	*mclefG2	*mclefF4	*mclefG2	*mclefF4	*mclefGv2	*mclefG2	*mclefG2
*k[b-]	*	*k[b-]	*k[b-]	*k[b-]	*k[b-]	*k[b-]	*k[b-]	*k[b-]
*F:	*	*F:	*F:	*F:	*F:	*F:	*F:	*F:
*M3/2	*	*M3/2	*M3/2	*M3/2	*M3/2	*M3/2	*M3/2	*M3/2
*	*	*	*^	*^	*	*	*	*
2G	.	2g	2B-	2G	2g	2d	2G	2B-	2d	2g
=1	=1	=1	=1	=1	=1	=1	=1	=1	=1	=1
1E	5	1g	1B-	1E	1g	1c	1E	1B-	1c	1g
2C	7 n	2g	2B-	2C	2g	2e	2C	2B-	2e	2g
=2	=2	=2	=2	=2	=2	=2	=2	=2	=2	=2
1F	.	1f	1A	1F	1f	1c	1F	1A	1f	1f
2E-X	2	2a	2c	2E-X	2a	2f	2E-X	2c	2f	2a
=3	=3	=3	=3	=3	=3	=3	=3	=3	=3	=3
1D	6	1b-	1B-	1D	1b-	1f	1D	1B-	1f	1b-
2BB-	8	2dd	4B-	2BB-	2dd	2f	2BB-	(4B-	2f	2dd
=4	=4	=4	=4	=4	=4	=4	=4	=4	=4	=4
1E-X	-7	1b-	1G	1E-X	1b-	1e-X	1E-X	1G	1g	1b-
2C	6 -	2cc	2Ani	2C	2cc	2e-	2C	2e-X	2a	2cc
=5	=5	=5	=5	=5	=5	=5	=5	=5	=5	=5
1BB-	.	1dd	1B-	1BB-	1dd	2f	1BB-	1f	1b-	1dd
.	.	.	.	.	.	2dd	.	.	.	.
2AA	6	2ff	2F	2AA	2ff	2cc	2AA	2f	2cc	2ff
=6	=6	=6	=6	=6	=6	=6	=6	=6	=6	=6
2BB-	.	1dd	(1F	2BB-	1dd	1b-	2BB-	2f	1b-	1dd
1F	6 4	.	.	1F	.	.	1F	1f	.	.
.	5 3	2cc	4F)	.	2cc	2a	.	.	2a	2cc
.	.	.	4ryy	.	.	.	.	.	.	.
=7	=7	=7	=7	=7	=7	=7	=7	=7	=7	=7
1BB-	.	2b-	1.ryy	1BB-	1d	1f	2BB-	2d	2b-	2b-
.	.	2b-	.	.	.	.	2BB-	2d	2b-	2b-
2G	.	2b-	.	2G	2d	2g	2G	2d	2g	2b-
=8	=8	=8	=8	=8	=8	=8	=8	=8	=8	=8
1D	6	1b-	1.ryy	1D	1d	1f	1D	1f	1f	1b-
2BB-	.	2dd	.	2BB-	2f	2b-	2BB-	2f	2b-	2dd
=9	=9	=9	=9	=9	=9	=9	=9	=9	=9	=9
2C	n	1cc	2ryy	2C	2e	2g	(2C	(2e	(2g	1cc
2D	7	.	2ryy	2D	2d	2f	2D)	2d)	2f)	.
2E	5	2b-	2c	2E	2b-	2g	2E	2c	2g	2b-
=10	=10	=10	=10	=10	=10	=10	=10	=10	=10	=10
2F	.	1a	1c	2F	1a	1f	2F	2c	1f	1a
1C	6 4	.	.	1C	.	.	1C	(2c	.	.
.	5 3	2g	2B-	.	2g	2e	.	2B-)	2e	2g
=11	=11	=11	=11	=11	=11	=11	=11	=11	=11	=11
*	*	*	*	*	*	*	*^	*	*	*
1FF	.	1f	1A	1F	1f	1c	1F	1FF	1A	1f	1f
*	*	*	*	*	*	*	*v	*v	*	*	*
2D	#	2a	2ryy	2D	2d	2f#X	2D	2d	2f#X	2a
=12	=12	=12	=12	=12	=12	=12	=12	=12	=12	=12
1GG	.	1b-	1.ryy	1GG	1d	1g	1GG	1d	1g	1b-
2BB-	6	2dd	.	2BB-	2d	2g	2BB-	2d	2g	2dd
=13	=13	=13	=13	=13	=13	=13	=13	=13	=13	=13
1C	-	1cc	1.ryy	1C	1e-X	1g	1C	1e-X	1g	1cc
2D	#	2a	.	2D	4d	2f#X	2D	2d	2f#X	2a
.	.	.	.	.	4c	.	.	.	.	.
=14	=14	=14	=14	=14	=14	=14	=14	=14	=14	=14
1GG	.	2g	1ryy	1GG	1B-	1d	2GG	2B-	2g	2g
.	.	2g	.	.	.	.	2GG	2B-	2d	2g
*	*	*	*v	*v	*	*	*	*	*	*
*	*	*	*	*v	*v	*	*	*	*
==	==	==	==	==	==	==	==	==
*-	*-	*-	*-	*-	*-	*-	*-	*-
!!!system-decoration: {(s1,s2,s3,s4)}{(s5,s6)}{(s7,s8)}
!!!RDF**kern: i = editorial accidental
!!!RDF**kern: > = above
!!!RDF**kern: < = below
!!!AGN: chorale
!!!EED: Derek Remeš
!!!EED2: Victor Phan
!!!END: 2023/11/28
!!!ENC: Wolfgang Drescher
!!!EEV: 2023/11/30
!!!title: @{ONM}. @{OTL}